X: 031952
T: Cockled Old Man
S: "The Roche Collection of Traditional Irish Music" [III/31/102]
L: 1/8
M: 6/8
R: jig
K: Ador
e/f/ | gea ged | cAB c2d | eaa age | edd def |
gea ged | cAB cde | =fed e2d | cAG A2 :|
B | cBc A2G | ecB cde | ded cAG | Add ded |
cBc A2G | ecB cde |1 =fed ecA | GFE D2 :|2\
=fed e2d | cAG A2 :|
